mower-bag-on.svg

<svg fill="currentColor" viewBox="0 0 24 24"><path d="M12 2h2v5h-2zm10 4.3-1.4-1.4L17 8.4l1.4 1.4s3.5-3.5 3.6-3.5M10.8 12l1.1 2H17l-.5-.9c-.3-.7-1-1.1-1.8-1.1zm9.2 3h-8.6L4.6 3H1v2h2.4l4 7.1-5.1-2c-.2-.1-.6-.1-.9.1-.2.2-.4.5-.4.8v7c0 .5.5 1 1 1h3.3c.6 1.2 1.8 2 3.2 2s2.6-.8 3.2-2h5.5c.4 1.2 1.5 2 2.8 2 1.7 0 3-1.3 3-3s-1.3-3-3-3M5 17H3v-4.5l4.3 1.7c-1.2.4-2.1 1.5-2.3 2.8m3.5 2c-.8 0-1.5-.7-1.5-1.5S7.7 16 8.5 16s1.5.7 1.5 1.5S9.3 19 8.5 19M20 19c-.5 0-1-.5-1-1s.5-1 1-1 1 .5 1 1-.5 1-1 1"/></svg>

<svg  viewBox="0 0 24 24" fill="currentColor"><path  d="M12 2H14V7H12V2M22 6.3L20.6 4.9L17 8.4L18.4 9.8C18.4 9.8 21.9 6.3 22 6.3M10.8 12L11.9 14H17L16.5 13.1C16.2 12.4 15.5 12 14.7 12H10.8M20 15H11.4L4.6 3H1V5H3.4L7.4 12.1L2.3 10.1C2.1 10 1.7 10 1.4 10.2C1.2 10.4 1 10.7 1 11V18C1 18.5 1.5 19 2 19H5.3C5.9 20.2 7.1 21 8.5 21S11.1 20.2 11.7 19H17.2C17.6 20.2 18.7 21 20 21C21.7 21 23 19.7 23 18S21.7 15 20 15M5 17H3V12.5L7.3 14.2C6.1 14.6 5.2 15.7 5 17M8.5 19C7.7 19 7 18.3 7 17.5S7.7 16 8.5 16 10 16.7 10 17.5 9.3 19 8.5 19M20 19C19.5 19 19 18.5 19 18S19.5 17 20 17 21 17.5 21 18 20.5 19 20 19Z"/></svg>
